src/assets/skills/azure-devops.svg

<svg height="100pt" viewBox="0 0 100 100" width="100pt" xmlns="http://www.w3.org/2000/svg"><path d="m0 0h100v100h-100z" fill="#0078d7"/><g fill="#fff"><path d="m67.365 75.08-52.365-7.871 52.365 17.476 17.635-7.338v-54.961l-17.635-7.071z"/><path d="m58.514 32.342-9.605 1.75v21.396l-25.08-3.229 10.272 12.246v-5.114l14.808 5.114 9.471-7.94"/><path d="m48.423 34.234c-1.854-1.449-11.789-8.829-11.789-8.829v4.085l-13.378 5.271-3.842 5.008v10.805l4.107 1.318v-13.046z"/></g></svg>

<?xml version="1.0" encoding="UTF-8" standalone="no"?><!-- Generator: Gravit.io --><svg xmlns="http://www.w3.org/2000/svg" xmlns:xlink="http://www.w3.org/1999/xlink" style="isolation:isolate" viewBox="0 0 100 100" width="100pt" height="100pt"><rect x="0" y="0" width="100" height="100" transform="matrix(1,0,0,1,0,0)" fill="rgb(0,120,215)"/><g><path d=" M 67.365 75.08 L 15 67.209 L 67.365 84.685 L 85 77.347 L 85 22.386 L 67.365 15.315 L 67.365 75.08 Z " fill="rgb(255,255,255)"/><path d=" M 58.514 32.342 L 48.909 34.092 L 48.909 55.488 L 23.829 52.259 L 34.101 64.505 L 34.101 59.391 L 48.909 64.505 L 58.38 56.565" fill="rgb(255,255,255)"/><path d=" M 48.423 34.234 C 46.569 32.785 36.634 25.405 36.634 25.405 L 36.634 29.49 L 23.256 34.761 L 19.414 39.769 L 19.414 50.574 L 23.521 51.892 L 23.521 38.846 L 48.423 34.234 Z " fill="rgb(255,255,255)"/></g></svg>
